Sources/FrostedUI/Resources/Icons.xcassets/command24.imageset/command-24.svg

<svg width="24" height="24" viewBox="0 0 24 24" fill="none" xmlns="http://www.w3.org/2000/svg" data-fui-icon="true">
  <path
    d="M18 2C20.2091 2 22 3.79086 22 6C22 8.20914 20.2091 10 18 10H15.5V14H18C20.2091 14 22 15.7909 22 18C22 20.2091 20.2091 22 18 22C15.7909 22 14 20.2091 14 18V15.5H10V18C10 20.2091 8.20914 22 6 22C3.79086 22 2 20.2091 2 18C2 15.7909 3.79086 14 6 14H8.5V10H6C3.79086 10 2 8.20914 2 6C2 3.79086 3.79086 2 6 2C8.20914 2 10 3.79086 10 6V8.5H14V6C14 3.79086 15.7909 2 18 2ZM6 15.5C4.61929 15.5 3.5 16.6193 3.5 18C3.5 19.3807 4.61929 20.5 6 20.5C7.38071 20.5 8.5 19.3807 8.5 18V15.5H6ZM15.5 18C15.5 19.3807 16.6193 20.5 18 20.5C19.3807 20.5 20.5 19.3807 20.5 18C20.5 16.6193 19.3807 15.5 18 15.5H15.5V18ZM10 14H14V10H10V14ZM6 3.5C4.61929 3.5 3.5 4.61929 3.5 6C3.5 7.38071 4.61929 8.5 6 8.5H8.5V6C8.5 4.61929 7.38071 3.5 6 3.5ZM18 3.5C16.6193 3.5 15.5 4.61929 15.5 6V8.5H18C19.3807 8.5 20.5 7.38071 20.5 6C20.5 4.61929 19.3807 3.5 18 3.5Z"
    fill="currentColor"
  />
</svg>

<svg xmlns="http://www.w3.org/2000/svg" width="24" height="24" fill="none" data-fui-icon="true" viewBox="0 0 24 24"><path fill="currentColor" d="M18 2a4 4 0 0 1 0 8h-2.5v4H18a4 4 0 1 1-4 4v-2.5h-4V18a4 4 0 1 1-4-4h2.5v-4H6a4 4 0 1 1 4-4v2.5h4V6a4 4 0 0 1 4-4M6 15.5A2.5 2.5 0 1 0 8.5 18v-2.5zm9.5 2.5a2.5 2.5 0 1 0 2.5-2.5h-2.5zM10 14h4v-4h-4zM6 3.5a2.5 2.5 0 0 0 0 5h2.5V6A2.5 2.5 0 0 0 6 3.5m12 0A2.5 2.5 0 0 0 15.5 6v2.5H18a2.5 2.5 0 0 0 0-5"/></svg>
